X:261
M:4/4
L:1/4
K:F
F | c c c c | d c/B/ A A | B c d d | c3 c | c c c A | c B/A/ G c | A F G G | F2 !sintro!A2 | c F G G | F3 !eintro!|]
